X:720
T:Vaqueirada (CT 032)
R:Vaqueirada
C:Tradicional
S:Msica Tradicional Asturiana, (C) Tello & Tito. Asturies, 2001.
S:http://pagina.de/MusTradAst <telloytito@asturies.org>
N:Cancin de baile de pandero.
N:Es propia de los vaqueiros de alzada que habitan las braas vecinas a Somiedu.
N:Este baile es muy general en Asturies, y su ritmo casi exclusivo es el de seis por ocho.
N:Para ejecutarlo, se distribuyen hombres y mujeres en dos hileras respectivas y colocadas frente a frente.
N:Cada bailador est provisto de castauelas, cuyo tamao vara segn el sitio de la provincia, pues hacia la costa y en la parte central, no excede de unos cinco centmetros de dimetro, mientas que en el Sur, y sobre todo en los pueblos que limitan con Llen, pueden tener triple o cudruple tamao.
N:Detrs de una de las hileras de bailadores se sita la cantadora, la cual toca el pandero al mismo tiempo que entona las coplas.
N:El pandero es de forma circular, mas se us en otro tiempo, como an hoy en la parte alta de Llen, un pandero cuadrado cubierto con piel por ambos lados y cuyo bastidor estaba cruzado interiormente por cuerdas de tripa de cordero, a fin de hacer ms intensa la vibracin.
N:Mientras se canta la copla, suena el pandero suavemente en un aire moderado y los bailadores hacen el "pasu", esto es, imprimen al cuerpo un movimiento rtmico hacia los lados, conservando los brazos en posicin natural.
N:Al terminar la cantadora la copla, dan aqullos una vuelta completa girando sobre los pies, y levantando los brazos, comienzan a bailar acopandose con las castauelas, al mismo tiemo que el pandero suena con mayor intensidad y en aire algo ms acelerado.
N:Los movimientos del baile son sencillos, limitndose, por lo general, a un simple y alternativo cruzado de pies en cada parte del comps, salvo cuando alguno de los bailadores quiere hacer alarde de su destreza y complica cada vez ms los movimientos.
A:Asturies
G:Arrg.
O:Somiedu
Z:Cancioneru de Torner 032
M:6/8
L:1/8
Q:3/8=70
E:2 Voces
K:F
V:1
|:GGG GBB|cc2- c z2|
GGG GBB|cc2- c z2|
GGG GBB|ccB ddd|
c2c AAz|{A}G6-|G2 z4:|!
V:2
|"Panderu - Ritmu 1"
FF/2F/2F F "Redoble"F/4F/4F/4F/4F/4F/4F/4F/4|FF/2F/2F F 
F/4F/4F/4F/4F/4F/4F/4F/4|
FF/2F/2F F F/4F/4F/4F/4F/4F/4F/4F/4|FF/2F/2F F F/4F/4F/4F/4F/4F/4F/4F/4|
FF/2F/2F F F/4F/4F/4F/4F/4F/4F/4F/4|FF/2F/2F F F/4F/4F/4F/4F/4F/4F/4F/4|
FF/2F/2F F F/4F/4F/4F/4F/4F/4F/4F/4|FF/2F/2F F F/4F/4F/4F/4F/4F/4F/4F/4|
FF/2F/2F F F/4F/4F/4F/4F/4F/4F/4F/4|!
|"Panderu - Ritmu 2"F "Redoble"F/4F/4F/4F/4F/4F/4F/4F/4 FFF|F 
F/4F/4F/4F/4F/4F/4F/4F/4 FFF|
F F/4F/4F/4F/4F/4F/4F/4F/4 FFF|F F/4F/4F/4F/4F/4F/4F/4F/4 FFF|
F F/4F/4F/4F/4F/4F/4F/4F/4 FFF|F F/4F/4F/4F/4F/4F/4F/4F/4 FFF|
F F/4F/4F/4F/4F/4F/4F/4F/4 FFF|F F/4F/4F/4F/4F/4F/4F/4F/4 FFF|F 
F/4F/4F/4F/4F/4F/4F/4F/4 FFF|
V:3
|"Castauelas"
Fz2 Fz2|Fz2 Fz2|
Fz2 Fz2|Fz2 Fz2|
Fz2 Fz2|Fz2 Fz2|
Fz2 Fz2|Fz2 Fz2|Fz2 Fz2|
Fz2 Fz2|Fz2 Fz2|
Fz2 Fz2|Fz2 Fz2|
Fz2 Fz2|Fz2 Fz2|
Fz2 Fz2|Fz2 Fz2|Fz2 Fz2|
W:El sior cura nun baila
W:porque diz que tien corona;
W:baile, sior cura, baile,
W:que Dios tolo perdona. Ei!
W:
